;Generated by Cura LulzBot Edition GCodeWriter Version: 3.6.20
;FLAVOR:Marlin
;TIME:4830
;Filament used: 4.18718m
;Layer height: 0.38
;Generated with Cura_SteamEngine 3.6.20
M82 ;absolute extrusion mode
;This G-Code has been generated specifically for the LulzBot TAZ 6 with standard extruder
M73 P0 ; clear GLCD progress bar
M75 ; start GLCD timer
G26 ; clear potential 'probe fail' condition
M107 ; disable fans
M420 S0 ; disable previous leveling matrix
G90 ; absolute positioning
M82 ; set extruder to absolute mode
G92 E0 ; set extruder position to 0
M140 S60.0 ; start bed heating up
M109 R140 ; soften filament before homing Z
G28 ; Home all axis
G1 E-30 F100 ; retract filament
M109 R140 ; wait for extruder to reach wiping temp
G1 X-15 Y100 F3000 ; move above wiper pad
G1 Z1 ; push nozzle into wiper
G1 X-17 Y95 F1000 ; slow wipe
G1 X-17 Y90 F1000 ; slow wipe
G1 X-17 Y85 F1000 ; slow wipe
G1 X-15 Y90 F1000 ; slow wipe
G1 X-17 Y80 F1000 ; slow wipe
G1 X-15 Y95 F1000 ; slow wipe
G1 X-17 Y75 F2000 ; fast wipe
G1 X-15 Y65 F2000 ; fast wipe
G1 X-17 Y70 F2000 ; fast wipe
G1 X-15 Y60 F2000 ; fast wipe
G1 X-17 Y55 F2000 ; fast wipe
G1 X-15 Y50 F2000 ; fast wipe
G1 X-17 Y40 F2000 ; fast wipe
G1 X-15 Y45 F2000 ; fast wipe
G1 X-17 Y35 F2000 ; fast wipe
G1 X-15 Y40 F2000 ; fast wipe
G1 X-17 Y70 F2000 ; fast wipe
G1 X-15 Y30 Z2 F2000 ; fast wipe
G1 X-17 Y35 F2000 ; fast wipe
G1 X-15 Y25 F2000 ; fast wipe
G1 X-17 Y30 F2000 ; fast wipe
G1 X-15 Y25 Z1.5 F1000 ; slow wipe
G1 X-17 Y23 F1000 ; slow wipe
G1 Z10 ; raise extruder
M109 R140 ; wait for extruder to reach probe temp
G1 X-9 Y-9 ; move above first probe point
M204 S100 ; set probing acceleration
G29 ; start auto-leveling sequence
M420 S1 ; activate bed level matrix
M425 Z			     ; use measured Z backlash for compensation
M425 Z F0		     ; turn off measured Z backlash compensation. (if activated in the quality settings, this command will automatically be ignored)
M204 S500 ; restore standard acceleration
G1 X0 Y0 Z15 F5000 ; move up off last probe point
G4 S1 ; pause
M400 ; wait for moves to finish
M117 Heating... ; progress indicator message on LCD
M109 R210 ; wait for extruder to reach printing temp
M190 R60.0 ; wait for bed to reach printing temp
G1 Z2 E0 F75 ; prime tiny bit of filament into the nozzle
M117 TAZ 6 Printing... ; progress indicator message on LCD

M221 S100 T0
G92 E0
G1 F600 E-1.75
;LAYER_COUNT:50
;LAYER:0
M107
G0 F2625 X103.8 Y85.35 Z0.425
;TYPE:SKIRT
G1 F600 E0
G1 F900 X104.131 Y84.962 E0.01699
G1 X104.518 Y84.631 E0.03395
G1 X104.952 Y84.364 E0.05092
G1 X105.423 Y84.169 E0.06791
G1 X105.918 Y84.05 E0.08486
G1 X106.43 Y84.009 E0.10197
G1 X166.411 Y84.01 E2.09996
G1 X166.919 Y84.05 E2.11694
G1 X167.414 Y84.169 E2.13389
G1 X167.885 Y84.364 E2.15088
G1 X168.32 Y84.63 E2.16786
G1 X168.707 Y84.96 E2.1848
G1 X169.039 Y85.347 E2.20179
G1 X169.305 Y85.782 E2.21877
G1 X169.501 Y86.252 E2.23573
G1 X169.62 Y86.747 E2.25269
G1 X169.661 Y87.259 E2.2698
G1 X169.67 Y144.531 E4.17755
G1 X169.868 Y150.98 E4.39247
G1 X169.87 Y151.081 E4.39584
G1 X169.86 Y196.679 E5.91472
G1 X169.82 Y197.187 E5.9317
G1 X169.701 Y197.682 E5.94866
G1 X169.506 Y198.153 E5.96564
G1 X169.24 Y198.587 E5.98259
G1 X168.935 Y198.949 E5.99836
G1 X168.679 Y199.211 E6.01056
G1 X168.295 Y199.547 E6.02756
G1 X167.864 Y199.818 E6.04452
G1 X167.395 Y200.019 E6.06151
G1 X166.901 Y200.144 E6.07849
G1 X166.354 Y200.19 E6.09677
G1 X106.488 Y200.19 E8.09093
G1 X105.98 Y200.15 E8.1079
G1 X105.485 Y200.031 E8.12486
G1 X105.014 Y199.836 E8.14184
G1 X104.579 Y199.57 E8.15883
G1 X104.199 Y199.247 E8.17544
G1 X103.941 Y198.991 E8.18755
G1 X103.608 Y198.605 E8.20453
G1 X103.34 Y198.172 E8.22149
G1 X103.143 Y197.702 E8.23847
G1 X103.022 Y197.207 E8.25544
G1 X102.98 Y196.684 E8.27292
G1 X102.98 Y150.75 E9.803
G1 X102.982 Y150.651 E9.8063
G1 X103.17 Y144.498 E10.01135
G1 X103.18 Y87.258 E11.91803
G1 X103.22 Y86.75 E11.93501
G1 X103.339 Y86.255 E11.95197
G1 X103.534 Y85.784 E11.96895
G1 X103.8 Y85.35 E11.9859
G1 F600 E10.2359
G0 F2625 X105.759 Y149.378
G0 X106.47 Y151
;TYPE:SUPPORT
G1 F600 E11.9859
G1 F900 X166.37 Y151 E13.98119
G1 X166.37 Y196.583 E15.49958
G1 X166.253 Y196.7 E15.50509
G1 X106.587 Y196.7 E17.49259
G1 X106.47 Y196.583 E17.4981
G1 X106.47 Y151 E19.01649
G1 F600 E17.26649
G0 F2625 X122.366 Y170.698
G1 F600 E19.01649
G1 F900 X121.867 Y171.197 E19.03999
G1 X121.867 Y191.304 E19.70976
G1 X122.366 Y191.803 E19.73327
G1 X150.473 Y191.803 E20.66953
G1 X150.972 Y191.304 E20.69303
G1 X150.972 Y171.197 E21.3628
G1 X150.473 Y170.698 E21.38631
G1 X122.366 Y170.698 E22.32256
G0 F2625 X121.691 Y171.089
G1 F900 X121.691 Y151.2 E22.98507
G1 F600 E21.23507
G0 F2625 X120.024 Y151.2
G1 F600 E22.98507
G1 F900 X120.024 Y196.5 E24.49403
G1 F600 E22.74403
G0 F2625 X121.691 Y196.5
G1 F600 E24.49403
G1 F900 X121.691 Y191.412 E24.66352
G0 F2625 X121.983 Y191.705
G1 F900 X106.669 Y191.705 E25.17363
G1 F600 E23.42363
G0 F2625 X106.669 Y190.038
G1 F600 E25.17363
G1 F900 X121.666 Y190.038 E25.67319
G1 F600 E23.92319
G0 F2625 X121.666 Y188.371
G1 F600 E25.67319
G1 F900 X106.669 Y188.371 E26.17274
G1 F600 E24.42274
G0 F2625 X106.669 Y186.704
G1 F600 E26.17274
G1 F900 X121.666 Y186.704 E26.6723
G1 F600 E24.9223
G0 F2625 X121.666 Y185.037
G1 F600 E26.6723
G1 F900 X106.669 Y185.037 E27.17185
G1 F600 E25.42185
G0 F2625 X106.669 Y183.37
G1 F600 E27.17185
G1 F900 X121.666 Y183.37 E27.67141
G1 F600 E25.92141
G0 F2625 X121.666 Y181.703
G1 F600 E27.67141
G1 F900 X106.669 Y181.703 E28.17096
G1 F600 E26.42096
G0 F2625 X106.669 Y180.036
G1 F600 E28.17096
G1 F900 X121.666 Y180.036 E28.67052
G1 F600 E26.92052
G0 F2625 X121.666 Y178.369
G1 F600 E28.67052
G1 F900 X106.669 Y178.369 E29.17008
G1 F600 E27.42008
G0 F2625 X106.669 Y176.702
G1 F600 E29.17008
G1 F900 X121.666 Y176.702 E29.66963
G1 F600 E27.91963
G0 F2625 X121.666 Y175.035
G1 F600 E29.66963
G1 F900 X106.669 Y175.035 E30.16919
G1 F600 E28.41919
G0 F2625 X106.669 Y173.368
G1 F600 E30.16919
G1 F900 X121.666 Y173.368 E30.66874
G1 F600 E28.91874
G0 F2625 X121.666 Y171.701
G1 F600 E30.66874
G1 F900 X106.669 Y171.701 E31.1683
G1 F600 E29.4183
G0 F2625 X106.669 Y170.034
G1 F600 E31.1683
G1 F900 X166.17 Y170.034 E33.1503
G1 F600 E31.4003
G0 F2625 X166.17 Y171.701
G1 F600 E33.1503
G1 F900 X151.172 Y171.701 E33.64989
G1 F600 E31.89989
G0 F2625 X150.03 Y170.498
G1 F600 E33.64989
G1 F900 X150.03 Y151.2 E34.29271
G1 F600 E32.54271
G0 F2625 X151.697 Y151.2
G1 F600 E34.29271
G1 F900 X151.697 Y196.5 E35.80167
G1 F600 E34.05167
G0 F2625 X150.03 Y196.5
G1 F600 E35.80167
G1 F900 X150.03 Y192.003 E35.95147
G0 F2625 X150.855 Y191.705
G1 F900 X166.17 Y191.705 E36.46161
G1 F600 E34.71161
G0 F2625 X166.17 Y190.038
G1 F600 E36.46161
G1 F900 X151.172 Y190.038 E36.9612
G1 F600 E35.2112
G0 F2625 X151.172 Y188.371
G1 F600 E36.9612
G1 F900 X166.17 Y188.371 E37.46079
G1 F600 E35.71079
G0 F2625 X166.17 Y186.704
G1 F600 E37.46079
G1 F900 X151.172 Y186.704 E37.96038
G1 F600 E36.21038
G0 F2625 X151.172 Y185.037
G1 F600 E37.96038
G1 F900 X166.17 Y185.037 E38.45997
G1 F600 E36.70997
G0 F2625 X166.17 Y183.37
G1 F600 E38.45997
G1 F900 X151.172 Y183.37 E38.95956
G1 F600 E37.20956
G0 F2625 X151.172 Y181.703
G1 F600 E38.95956
G1 F900 X166.17 Y181.703 E39.45915
G1 F600 E37.70915
G0 F2625 X166.17 Y180.036
G1 F600 E39.45915
G1 F900 X151.172 Y180.036 E39.95873
G1 F600 E38.20873
G0 F2625 X151.172 Y178.369
G1 F600 E39.95873
G1 F900 X166.17 Y178.369 E40.45832
G1 F600 E38.70832
G0 F2625 X166.17 Y176.702
G1 F600 E40.45832
G1 F900 X151.172 Y176.702 E40.95791
G1 F600 E39.20791
G0 F2625 X151.172 Y175.035
G1 F600 E40.95791
G1 F900 X166.17 Y175.035 E41.4575
G1 F600 E39.7075
G0 F2625 X166.17 Y173.368
G1 F600 E41.4575
G1 F900 X151.172 Y173.368 E41.95709
G1 F600 E40.20709
G0 F2625 X148.363 Y170.498
G1 F600 E41.95709
G1 F900 X148.363 Y151.2 E42.59991
G1 F600 E40.84991
G0 F2625 X146.696 Y151.2
G1 F600 E42.59991
G1 F900 X146.696 Y170.498 E43.24274
G1 F600 E41.49274
G0 F2625 X145.029 Y170.498
G1 F600 E43.24274
G1 F900 X145.029 Y151.2 E43.88556
G1 F600 E42.13556
G0 F2625 X143.362 Y151.2
G1 F600 E43.88556
G1 F900 X143.362 Y170.498 E44.52838
G1 F600 E42.77838
G0 F2625 X141.695 Y170.498
G1 F600 E44.52838
G1 F900 X141.695 Y151.2 E45.17121
G1 F600 E43.42121
G0 F2625 X140.028 Y151.2
G1 F600 E45.17121
G1 F900 X140.028 Y170.498 E45.81403
G1 F600 E44.06403
G0 F2625 X138.361 Y170.498
G1 F600 E45.81403
G1 F900 X138.361 Y151.2 E46.45685
G1 F600 E44.70685
G0 F2625 X136.694 Y151.2
G1 F600 E46.45685
G1 F900 X136.694 Y170.498 E47.09968
G1 F600 E45.34968
G0 F2625 X135.027 Y170.498
G1 F600 E47.09968
G1 F900 X135.027 Y151.2 E47.7425
G1 F600 E45.9925
G0 F2625 X133.36 Y151.2
G1 F600 E47.7425
G1 F900 X133.36 Y170.498 E48.38532
G1 F600 E46.63532
G0 F2625 X131.693 Y170.498
G1 F600 E48.38532
G1 F900 X131.693 Y151.2 E49.02815
G1 F600 E47.27815
G0 F2625 X130.026 Y151.2
G1 F600 E49.02815
G1 F900 X130.026 Y170.498 E49.67097
G1 F600 E47.92097
G0 F2625 X128.359 Y170.498
G1 F600 E49.67097
G1 F900 X128.359 Y151.2 E50.31379
G1 F600 E48.56379
G0 F2625 X126.692 Y151.2
G1 F600 E50.31379
G1 F900 X126.692 Y170.498 E50.95662
G1 F600 E49.20662
G0 F2625 X125.025 Y170.498
G1 F600 E50.95662
G1 F900 X125.025 Y151.2 E51.59944
G1 F600 E49.84944
G0 F2625 X123.358 Y151.2
G1 F600 E51.59944
G1 F900 X123.358 Y170.498 E52.24226
G1 F600 E50.49226
G0 F2625 X106.669 Y168.367
G1 F600 E52.24226
G1 F900 X166.17 Y168.367 E54.22426
G1 F600 E52.47426
G0 F2625 X166.17 Y166.7
G1 F600 E54.22426
G1 F900 X106.669 Y166.7 E56.20626
G1 F600 E54.45626
G0 F2625 X106.669 Y165.033
G1 F600 E56.20626
G1 F900 X166.17 Y165.033 E58.18826
G1 F600 E56.43826
G0 F2625 X166.17 Y163.366
G1 F600 E58.18826
G1 F900 X106.669 Y163.366 E60.17026
G1 F600 E58.42026
G0 F2625 X106.669 Y161.699
G1 F600 E60.17026
G1 F900 X166.17 Y161.699 E62.15226
G1 F600 E60.40226
G0 F2625 X166.17 Y160.032
G1 F600 E62.15226
G1 F900 X106.669 Y160.032 E64.13426
G1 F600 E62.38426
G0 F2625 X106.669 Y158.365
G1 F600 E64.13426
G1 F900 X166.17 Y158.365 E66.11626
G1 F600 E64.36626
G0 F2625 X166.17 Y156.698
G1 F600 E66.11626
G1 F900 X106.669 Y156.698 E68.09826
G1 F600 E66.34826
G0 F2625 X106.669 Y155.031
G1 F600 E68.09826
G1 F900 X166.17 Y155.031 E70.08026
G1 F600 E68.33026
G0 F2625 X166.17 Y153.364
G1 F600 E70.08026
G1 F900 X106.669 Y153.364 E72.06226
G1 F600 E70.31226
G0 F2625 X106.669 Y151.697
G1 F600 E72.06226
G1 F900 X166.17 Y151.697 E74.04426
G1 F600 E72.29426
G0 F2625 X165.033 Y151.2
G1 F600 E74.04426
G1 F900 X165.033 Y196.5 E75.55322
G1 F600 E73.80322
G0 F2625 X163.366 Y196.5
G1 F600 E75.55322
G1 F900 X163.366 Y151.2 E77.06218
G1 F600 E75.31218
G0 F2625 X161.699 Y151.2
G1 F600 E77.06218
G1 F900 X161.699 Y196.5 E78.57114
G1 F600 E76.82114
G0 F2625 X160.032 Y196.5
G1 F600 E78.57114
G1 F900 X160.032 Y151.2 E80.0801
G1 F600 E78.3301
G0 F2625 X158.365 Y151.2
G1 F600 E80.0801
G1 F900 X158.365 Y196.5 E81.58906
G1 F600 E79.83906
G0 F2625 X156.698 Y196.5
G1 F600 E81.58906
G1 F900 X156.698 Y151.2 E83.09802
G1 F600 E81.34802
G0 F2625 X155.031 Y151.2
G1 F600 E83.09802
G1 F900 X155.031 Y196.5 E84.60698
G1 F600 E82.85698
G0 F2625 X153.364 Y196.5
G1 F600 E84.60698
G1 F900 X153.364 Y151.2 E86.11594
G1 F600 E84.36594
G0 F2625 X118.357 Y151.2
G1 F600 E86.11594
G1 F900 X118.357 Y196.5 E87.62489
G1 F600 E85.87489
G0 F2625 X116.69 Y196.5
G1 F600 E87.62489
G1 F900 X116.69 Y151.2 E89.13385
G1 F600 E87.38385
G0 F2625 X115.023 Y151.2
G1 F600 E89.13385
G1 F900 X115.023 Y196.5 E90.64281
G1 F600 E88.89281
G0 F2625 X113.356 Y196.5
G1 F600 E90.64281
G1 F900 X113.356 Y151.2 E92.15177
G1 F600 E90.40177
G0 F2625 X111.689 Y151.2
G1 F600 E92.15177
G1 F900 X111.689 Y196.5 E93.66073
G1 F600 E91.91073
G0 F2625 X110.022 Y196.5
G1 F600 E93.66073
G1 F900 X110.022 Y151.2 E95.16969
G1 F600 E93.41969
G0 F2625 X108.355 Y151.2
G1 F600 E95.16969
G1 F900 X108.355 Y196.5 E96.67865
G1 F600 E94.92865
G0 F2625 X106.688 Y196.5
G1 F600 E96.67865
G1 F900 X106.688 Y151.2 E98.18761
G1 F600 E96.43761
G0 F2625 X106.669 Y193.372
G1 F600 E98.18761
G1 F900 X166.17 Y193.372 E100.16961
G1 F600 E98.41961
G0 F2625 X166.17 Y195.039
G1 F600 E100.16961
G1 F900 X106.669 Y195.039 E102.15161
G1 F600 E100.40161
G0 F2625 X123.358 Y196.5
G1 F600 E102.15161
G1 F900 X123.358 Y192.003 E102.30141
G1 F600 E100.55141
G0 F2625 X125.025 Y192.003
G1 F600 E102.30141
G1 F900 X125.025 Y196.5 E102.4512
G1 F600 E100.7012
G0 F2625 X126.692 Y196.5
G1 F600 E102.4512
G1 F900 X126.692 Y192.003 E102.601
G1 F600 E100.851
G0 F2625 X128.359 Y192.003
G1 F600 E102.601
G1 F900 X128.359 Y196.5 E102.7508
G1 F600 E101.0008
G0 F2625 X130.026 Y196.5
G1 F600 E102.7508
G1 F900 X130.026 Y192.003 E102.90059
G1 F600 E101.15059
G0 F2625 X131.693 Y192.003
G1 F600 E102.90059
G1 F900 X131.693 Y196.5 E103.05039
G1 F600 E101.30039
G0 F2625 X133.36 Y196.5
G1 F600 E103.05039
G1 F900 X133.36 Y192.003 E103.20019
G1 F600 E101.45019
G0 F2625 X135.027 Y192.003
G1 F600 E103.20019
G1 F900 X135.027 Y196.5 E103.34998
G1 F600 E101.59998
G0 F2625 X136.694 Y196.5
G1 F600 E103.34998
G1 F900 X136.694 Y192.003 E103.49978
G1 F600 E101.74978
G0 F2625 X138.361 Y192.003
G1 F600 E103.49978
G1 F900 X138.361 Y196.5 E103.64958
G1 F600 E101.89958
G0 F2625 X140.028 Y196.5
G1 F600 E103.64958
G1 F900 X140.028 Y192.003 E103.79937
G1 F600 E102.04937
G0 F2625 X141.695 Y192.003
G1 F600 E103.79937
G1 F900 X141.695 Y196.5 E103.94917
G1 F600 E102.19917
G0 F2625 X143.362 Y196.5
G1 F600 E103.94917
G1 F900 X143.362 Y192.003 E104.09897
G1 F600 E102.34897
G0 F2625 X145.029 Y192.003
G1 F600 E104.09897
G1 F900 X145.029 Y196.5 E104.24876
G1 F600 E102.49876
G0 F2625 X146.696 Y196.5
G1 F600 E104.24876
G1 F900 X146.696 Y192.003 E104.39856
G1 F600 E102.64856
G0 F2625 X148.363 Y192.003
G1 F600 E104.39856
G1 F900 X148.363 Y196.5 E104.54836
G1 F600 E102.79836
;MESH:
G0 F2625 X148.363 Y149.915
G0 X148.363 Y148.48
G0 X165.6 Y148.43
G0 X165.67 Y148.5
;TYPE:WALL-INNER
G1 F600 E104.54836
G1 F900 X107.17 Y148.5 E106.49701
G1 X107.17 Y88 E108.51229
G1 X165.67 Y88 E110.46095
G1 X165.67 Y148.5 E112.47622
G0 F2625 X165.6 Y148.43
G0 X120.639 Y137.03
G0 X120.597 Y124.427
G0 X120.667 Y124.497
G1 F900 X120.667 Y137.002 E112.89277
G1 X152.173 Y137.002 E113.94224
G1 X152.173 Y124.497 E114.35879
G1 X120.667 Y124.497 E115.40827
G0 F2625 X121.167 Y124.997
;TYPE:WALL-OUTER
G1 F900 X121.167 Y136.502 E115.7915
G1 X151.673 Y136.502 E116.80767
G1 X151.673 Y124.997 E117.1909
G1 X121.167 Y124.997 E118.20707
G0 F2625 X121.167 Y125.247
G0 X120.567 Y125.247
G0 X120.639 Y137.03
G0 X165.6 Y148.43
G0 X166.17 Y149
G1 F900 X106.67 Y149 E120.18904
G1 X106.67 Y87.5 E122.23762
G1 X166.17 Y87.5 E124.21959
G1 X166.17 Y149 E126.26818
G0 F2625 X165.92 Y149
G0 X165.6 Y148.43
G0 X165.18 Y148.01
;TYPE:SKIN
G1 F900 X107.66 Y148.01 E128.18419
G1 X107.66 Y88.49 E130.16682
G1 X165.18 Y88.49 E132.08283
G1 X165.18 Y148.01 E134.06547
G0 F2625 X152.663 Y137.492
G1 F900 X152.663 Y124.007 E134.51466
G1 X120.177 Y124.007 E135.59678
G1 X120.177 Y137.492 E136.04597
G1 X152.663 Y137.492 E137.12809
G0 F2625 X108.185 Y147.783
G1 F900 X107.884 Y147.482 E137.14227
G0 F2625 X107.884 Y146.775
G1 F900 X108.893 Y147.783 E137.18978
G0 F2625 X109.6 Y147.783
G1 F900 X107.884 Y146.068 E137.27059
G0 F2625 X107.884 Y145.361
G1 F900 X110.307 Y147.783 E137.38471
G0 F2625 X111.014 Y147.783
G1 F900 X107.884 Y144.654 E137.53213
G0 F2625 X107.884 Y143.947
G1 F900 X111.721 Y147.783 E137.71286
G0 F2625 X112.428 Y147.783
G1 F900 X107.884 Y143.24 E137.9269
G0 F2625 X107.884 Y142.532
G1 F900 X113.135 Y147.783 E138.17426
G0 F2625 X113.842 Y147.783
G1 F900 X107.884 Y141.825 E138.45493
G0 F2625 X107.884 Y141.118
G1 F900 X114.549 Y147.783 E138.76891
G0 F2625 X115.256 Y147.783
G1 F900 X107.884 Y140.411 E139.11619
G0 F2625 X107.884 Y139.704
G1 F900 X115.964 Y147.783 E139.49679
G0 F2625 X116.671 Y147.783
G1 F900 X107.884 Y138.997 E139.91071
G0 F2625 X107.884 Y138.29
G1 F900 X117.378 Y147.783 E140.35793
G0 F2625 X118.085 Y147.783
G1 F900 X107.884 Y137.583 E140.83845
G0 F2625 X107.884 Y136.876
G1 F900 X118.792 Y147.783 E141.35228
G0 F2625 X119.499 Y147.783
G1 F900 X107.884 Y136.168 E141.89944
G0 F2625 X107.884 Y135.461
G1 F900 X120.206 Y147.783 E142.47991
G0 F2625 X120.913 Y147.783
